X:1
T:5 Lieder, Op.49
T:Abenddämmerung
T:5. Abenddämmerung
T:Johannes Brahms
T:5 Lieder, Op. 49
T:Adolf Friedrich von Schack
T:OpenScore (CC0)
T:OpenScore (CC0)
T:OpenScore (CC0)
T:OpenScore (CC0)
T:OpenScore (CC0)
T:OpenScore (CC0)
C:Johannes Brahms
Z:Adolf Friedrich von Schack
Z:OpenScore (CC0)
%%score 1 { ( 2 5 ) | ( 3 4 ) }
L:1/8
Q:1/4=80
M:3/4
K:E
V:1 treble nm="Singstimme\nVoice"
V:2 bass nm="Pianoforte"
V:5 bass 
V:3 bass 
V:4 bass 
V:1
"^Ruhig" z6 | z6 | z6 | z6 | z6 | z6 | z2 z2 B B | e2 G2 =d2- | d B G2 B2 | c B B2 A2 | %10
w: ||||||Sei will-|kom- men, Zwie-|* licht- stun- de!|Dich vor al- len|
 z (c2 ^d) (e=G) | F2 z2 F F | A2 F2 e d | A2 F2 f d | (e3 c) (B^A) | c4 D2 | E2 z2 z2 | z6 | z6 | %19
w: lieb _ ich _|längst, die du,|lin- dernd je- de|Wun- de, uns- re|See- * le _|mild um-|fängst.|||
 z2 z2 d d | d3 c B c | d3 c B d | f c (c2- c/B/) (^A/B/) | c2 z2 d d | d3 c B c | d3 c B d | %26
w: Hin durch|dei- ne Däm- mer-|hel- le, in den|Lüf- ten, a- * * bend- *|feucht, schwe- ben|Bil- der, die der|grel- le Schein des|
 e c (B=G) (FE) | B2 z2 z2 | z6 | z6 | z6 | e2 G2 =d c | =d B G2 B2 | c B A3 B | (c3 ^d) (e=G) | %35
w: lau- ten Tags * ge- *|scheucht.||||Träu- me und Er-|in- ne- run- gen|na- hen aus der|Kin- * der- *|
 F2 z2 F F | A3 F e d | A2 F2 f d | (e3 c) (B^A) | c4 D2 | E2 z2 z2 | z6 | z6 | z2 z2 E E || %44
w: zeit, flü- stern|mit den Gei- ster-|zun- gen von ver-|gang- * ner _|Se- lig-|keit.|||Und zu|
[K:A] c3 B G3/2 A/ | f2 B2 B c | d3 f d3/2 c/ | B3/2 z/!>(! d2 c2!>)! | c3 ^B c3/2 ^d/ | %49
w: Ju- gend lust Ge-|nos- sen keh- ren|wir ins Va- ter|haus; Ar- me,|die uns einst um|
 ^d2 ^e z f =d | c3 A c3/2 B/ |"^sempre un poco animato" A2 z2 A A | =c3 B G3/2 A/ | =f2 B2 B ^c | %54
w: schlos- sen, brei- ten|neu sich nach uns|aus. Nach dem|Tren- nungs schmerz, dem|lan- gen, dür- fen|
 d3 ^f d3/2 ^c/ | B3/2 z/!>(! d2 c2!>)! | c3 ^B c3/2 ^d/ | ^d2 ^e z f =d | c A c3 B | A2 z2 z2 | %60
w: wir noch ein- mal|nun de- nen,|die da- hin ge-|gan- gen, am ge-|lieb- ten Her- zen|ruhn;|
 z6 | z6 |"^poco a poco" z2 z2 B B ||[K:E]"^Tempo I" e2 z G =d2- | d B G2 B2 | c B B2 A2 | %66
w: ||und in-|dess zum Au-|* gen- li- de|sanft der Schlum- mer|
 z (c2 ^d) (e=G) | F2 z2 F F | A3 F e ^d | A2 F2 f d | (e3 c) (B^A) | c4 D2 | E2 z2 z2 | z6 | %74
w: nie- * der- *|rinnt, sinkt auf|uns ein sel- ger|Frie- de aus dem|Land, _ wo _|Je- ne|sind.||
 !fermata!z6 |] %75
w: |
V:2
 ([E,G,]/[F,A,]/[E,G,]/[F,A,]/ [G,B,]/[A,C]/[G,B,]/[A,C]/ [B,=D]) z | %1
[K:treble] ([A,C]/[B,^D]/[A,C]/[B,D]/ [CE]/[DF]/[CE]/[DF]/ [E=G]) z | %2
!<(! ([DF]/[E^G]/[DF]/[EG]/ [FA]/[GB]/[FA]/[GB]/ [A=c]/[F=d]/[Ac]/[Fd]/)!<)! | %3
 ([GB]/[E^c]/[GB]/[Ec]/ [=GB]/[Ec]/[GB]/[Ec]/ [G^A]/[EB]/[GA]/[EB]/) | %4
 ([F=A]/[=CB]/[FA]/[CB]/ [EA]/[B,^G]/[EA]/[B,G]/ [DE]/[^A,G]/[EF]/[A,G]/) | %5
 ([^A,F]/[CE]/[A,F]/[CE]/[K:bass]!>(! [B,D]/[=A,C]/[B,D]/[A,C]/ [G,B,]/[F,A,]/[G,B,]/[F,A,]/-) | %6
 [F,A,]6!>)! |!p! ([E,G,]/[F,A,]/[E,G,]/[F,A,]/ [G,B,]) z z2 | %8
 ([E,G,]/[F,A,]/[E,G,]/[F,A,]/ [G,B,]/[A,C]/[G,B,]/[A,C]/ [B,=D]) z | %9
[K:treble] ([A,C]/[B,^D]/[A,C]/[B,D]/ [CE]) z z2 | %10
 ([A,C]/[B,D]/[A,C]/[B,D]/ [CE]/[DF]/[CE]/[DF]/ [E=G]) z | ([DF]/[E^G]/[DF]/[EG]/ [F=A]) z z2 | %12
 ([DF]/[E^G]/[DF]/[EG]/ [FA]) z z2 | %13
!<(! ([DF]/[EG]/[DF]/[EG]/ [FA]/[GB]/[FA]/[GB]/ [FA]/[GB]/[D^c]/[FB]/)!<)! | %14
 ([Ec]/B/E/B/ c/B/E/=G/ A/G/C/E/) | %15
!>(! ([^A,F]/[CE]/[A,F]/[CE]/[K:bass] [B,D]/[=A,C]/[B,D]/[A,C]/ [G,B,]/[F,A,]/[G,B,]/[F,A,]/)!>)! | %16
"_dim." ([E,G,]/[F,A,]/[E,G,]/[F,A,]/ [G,B,]/[A,C]/[G,B,]/[A,C]/ [B,=D]) z | %17
 z2 ([G,B,]/[^A,C]/[G,B,]/[A,C]/ [B,=D]) z | %18
 z2[K:treble]!<(! ([^A,^C]/[B,^D]/[CE]/[DF]/ [E^G]2-!<)! |!>(! [EG]2 [DF]2 [B,D]2)!>)! | %20
"^dolce" z3/2 =G,/ C/=G/ z z/ =G/c/=g/ | z3/2 =G,/ C/=G/ z z/ (F/B/f/) | %22
 z/ (F/B/f/) z/ (F/B/f/) z/ (^E/B/^e/) | z/ (F/^A/f/ F/c/=e/F/) ([Bd]/[Fe]/[Bd]/[Fe]/) | %24
 ([Bd]/[=Gc]/[Bd]/[Gc]/ [Bd]/[Fc]/[Bd]/[Fc]/ [Bd]/[Ec]/[Bd]/[Ec]/) | %25
 ([Bd]/[Fc]/[Bd]/[Fc]/ [Bd]/[=Gc]/[Bd]/[Gc]/ [Bd]/[Fc]/[Bd]/F/) | %26
 (e/=G/c/E/) ([GB]/C/[EG]/C/) ([CF]/^A,/[CE]/A,/) | %27
!<(! ([B,D]/[CE]/[B,D]/[CE]/!<)!!>(! [DF]2- [DF]/[CE]/[DF]/[CE]/)!>)! | %28
!<(! ([B,D]/[CE]/[B,D]/[CE]/!<)!!>(! [DF]2- [DF]/[CE]/[DF]/[CE]/)!>)! | %29
 [B,D]/[CE]/[B,D]/[CE]/[K:bass]!>(! ([B,D]/[=A,C]/[B,D]/[A,C]/ [G,B,]/[F,A,]/[G,B,]/[F,A,]/- | %30
 [F,A,]4)!>)! z2 |!p! ([E,G,]/[F,A,]/[E,G,]/[F,A,]/ [G,B,]) z z2 | %32
 ([E,G,]/[F,A,]/[E,G,]/[F,A,]/ [G,B,]/[A,C]/[G,B,]/[A,C]/ [B,=D]) z | %33
[K:treble] ([A,C]/[B,^D]/[A,C]/[B,D]/ [CE]) z z2 | %34
 ([A,C]/[B,D]/[A,C]/[B,D]/ [CE]/[DF]/[CE]/[DF]/ [E=G]) z | %35
!<(! ([DF]/[E^G]/[DF]/[EG]/!<)!!>(! [FA]) z z2!>)! | %36
!<(! ([DF]/[E^G]/[DF]/[EG]/!<)!!>(! [FA]) z z2!>)! | %37
!<(! ([DF]/[EG]/[DF]/[EG]/ [FA]/[GB]/[FA]/[GB]/ [FA]/[GB]/[D^c]/[FB]/)!<)! | %38
 ([Ec]/B/E/B/ c/B/E/=G/ A/G/C/E/) | %39
 ([^A,F]/[CE]/[A,F]/[CE]/[K:bass]!>(! [B,D]/[=A,C]/[B,D]/[A,C]/ [G,B,]/[F,A,]/[G,B,]/[F,A,]/)!>)! | %40
 ([E,G,]/[F,A,]/[E,G,]/[F,A,]/ [G,B,]/[A,C]/[G,B,]/[A,C]/ [B,=D]/[CE]/[B,D]/[CE]/) | %41
[K:treble]!<(! ([=D=F]/[E=G]/[DF]/[EG]/ [FA]/[G_B]/[FA]/[GB]/ [A=c]/[Bd]/[Ac]/[Bd]/)!<)! | %42
!>(! ^d2 d4!>)! |"_dim." ([Ge]/=d/G/g/ d/B/b/g/ d/=d'/b/e/) || %44
[K:A] (e'/c'/e/e'/ c'/e/d'/b/ d/c'/a/c/) | (b/a/B/b/ a/B/b/a/ B/c'/=g/c/) | %46
!<(! (=d'/a/d/f'/ a/f/!<)!!>(!d'/a/ d/c'/a/c/)!>)! | (b/a/B/b/ g/B/b/g/ B/a/f/A/) | %48
!<(! (g/^e/G/g/ f/G/g/e/ G/g/^d/G/ | g/^d/G/g/!<)! ^e/G/^a/f/ ^A/b/f/B/) | %50
!>(! (=a/c/=A/a/ c/A/a/f/!>)! A/g/=d/G/ | %51
"_sempre un poco animato" a/c/A/c'/ a/c/=d'/a/ d/=f'/a/=f/) | (e'/=c'/e/e'/ c'/e/d'/b/ d/c'/a/=c/ | %53
 b/a/B/b/ a/B/b/a/ B/^c'/=g/c/) |!<(! (=d'/a/d/^f'/ a/f/!<)!!>(!d'/a/ d/c'/a/c/!>)! | %55
 b/a/B/b/ g/B/b/g/ B/a/f/A/) | (g/^e/G/g/ f/G/g/e/ G/g/^d/G/ | g/^d/G/g/ ^e/G/^a/f/ ^A/b/f/B/) | %58
 (=a/c/=A/a/ c/A/a/f/ A/g/=d/G/) | a/c/A/=g/ e/=G/=f/d/ =F/d/A/F/ | %60
!>(! c/A/C/=G/ E/A,/=F/D/[K:bass] =F,/D/A,/D,/!>)! |!>(! ([E,A,=C]2 [^D,A,B,]4)!>)! | %62
!>(! ([E,A,=C]2 [^D,A,B,]4)!>)! ||[K:E]!pp! ([E,G,]/[F,A,]/[E,G,]/[F,A,]/ [G,B,]) z z2 | %64
 ([E,G,]/[F,A,]/[E,G,]/[F,A,]/ [G,B,]/[A,C]/[G,B,]/[A,C]/ [B,=D]) z | %65
[K:treble] ([A,C]/[B,^D]/[A,C]/[B,D]/ [CE]) z z2 | %66
 ([A,C]/[B,D]/[A,C]/[B,D]/ [CE]/[DF]/[CE]/[DF]/ [E=G]) z | ([DF]/[E^G]/[DF]/[EG]/ [FA]) z z2 | %68
 ([DF]/[E^G]/[DF]/[EG]/ [FA]) z z2 | %69
!<(! ([DF]/[EG]/[DF]/[EG]/ [FA]/[GB]/[FA]/[GB]/ [FA]/[GB]/[D^c]/[FB]/)!<)! | z6 | %71
!>(! ([^A,F]/[CE]/[A,F]/[CE]/[K:bass] [B,D]/[=A,C]/[B,D]/[A,C]/ [G,B,]/[F,A,]/[G,B,]/[F,A,]/)!>)! | %72
!<(! ([G,B,]/[F,A,]/[G,B,]/[F,A,]/ [E,G,]/[=D,F,]/[E,G,]/[D,F,]/ [C,E,]/[B,,D,]/[C,E,]/[B,,D,]/)!<)! | %73
 z/ (^D,/E,/G,/[K:treble]!>(! A,/D/E/G/ A/d/e/f/)!>)! | !fermata![Geg]6 |] %75
V:3
!p! (E,2 B,,2 G,,2) | (E,2 C,2 ^A,,2) | (B,,2 =C,2 A,,2) | (E,2 B,,2 ^C,2) | (^D,2 E,2 C,2) | %5
 F,,F,,B,,B,,B,,B,, | (=C,2 B,,2 D,2) | (E,2 B,,4) | (E,2 B,,2 G,,2) | (E,2 C,4) | %10
 (E,2 C,2 ^A,,2) | B,,B,,=C,C,C,C, | B,,B,,=C,C,C,C, | B,,B,,=C,C,B,,A,, | G,,G,,=G,,G,,C,,C,, | %15
 F,,F,,B,,B,,B,,B,, | (E,2 B,,2 G,,2) | (=D,2 B,,2 G,,2) | (F,2 E,2 C,2) | ^A,,2 B,,2 B,,2 | %20
!p! (E,,/B,,/E,/) z/ z (E,/B,/ E) z | (E,,/B,,/E,/) z/ z (E,/B,/ D,) z | %22
 (^A,,/F,/^A,/) z/ (G,,/D,/G,/) z/ (C,/G,/C/) z/ | (F,,/C,/F,/) z/ (^A,,/C,/F,/) z/ B,,B,, | %24
 B,,B,,B,,B,,B,,B,, | B,,B,,B,,B,,B,,B,, | B,,B,,B,,B,,B,,B,, | (B,,2 =G,,4) | (B,,2 =G,,4) | %29
 (B,,2 F,,2 B,,2) | (=C,2 B,,2 D,2) | (E,2 B,,4) | (E,2 B,,2 G,,2) | (E,2 C,4) | (E,2 C,2 ^A,,2) | %35
 B,,B,,=C,C,C,C, | B,,B,,=C,C,C,C, | B,,B,,=C,C,B,,A,, | G,,G,,=G,,G,,C,,C,, | F,,F,,B,,B,,B,,B,, | %40
 (E,2 B,,2 G,,2) | A,,6 | =F,,2 A,,4 | (E,2 B,,2 G,,2) || %44
[K:A]!pp! (A,,,/E,,/A,,/A,,,/ E,,/A,,/B,,,/E,,/ B,,/C,,/E,,/C,/) | %45
 (D,,/F,,/D,/^D,,/ F,,/^D,/E,,/A,,/ E,/E,,/A,,/E,/) | %46
 (F,,/A,,/F,/=D,,/ A,,/D,/D,,/F,,/ D,/^D,,/F,,/^D,/) | %47
 (E,,/A,,/E,/E,,/ B,,/E,/^E,,/G,,/ ^E,/F,,/A,,/F,/) | %48
 (G,,/C,/G,/G,,/ ^D,/G,/G,,/C,/ G,/G,,/^B,,/G,/ | %49
 C,,/G,,/C,/C,,/ G,,/C,/C,,/F,,/ C,/=D,,/F,,/=D,/) | %50
 (=E,,/A,,/E,/F,,/ A,,/F,/^D,,/A,,/ ^D,/E,,/B,,/E,/ | %51
 A,,/E,/A,/=G,,/ A,,/=G,/=F,,/A,,/ =F,/=D,,/A,,/D,/) | %52
 (A,,,/E,,/A,,/A,,,/ E,,/A,,/B,,,/E,,/ B,,/=C,,/E,,/=C,/ | %53
 D,,/A,,/D,/^D,,/ F,,/^D,/E,,/A,,/ E,/E,,/A,,/E,/) | %54
 (^F,,/A,,/F,/=D,,/ A,,/=D,/D,,/F,,/ D,/^D,,/F,,/^D,/ | %55
 E,,/A,,/E,/E,,/ B,,/E,/^E,,/G,,/ ^E,/F,,/A,,/F,/) | %56
 (G,,/C,/G,/G,,/ ^D,/G,/G,,/C,/ G,/G,,/^B,,/G,/ | %57
 C,,/G,,/C,/C,,/ G,,/C,/C,,/F,,/ C,/=D,,/F,,/=D,/) | %58
 (E,,/A,,/E,/F,,/ A,,/F,/^D,,/A,,/ ^D,/E,,/B,,/E,/) | A,,2 (C, D,2 =F,) | A,2 A,,4 | %61
 A,,A,, B,,B,,B,,B,, | ^F,,F,, B,,B,,B,,B,, ||[K:E] (E,2 B,,4) | (E,2 B,,2 G,,2) | (E,2 C,4) | %66
 (E,2 C,2 ^A,,2) | B,,B,, =C,C,C,C, | B,,B,, =C,C,C,C, | B,,B,,=C,C,B,,A,, | G,,G,,=G,,G,,C,,C,, | %71
 F,,F,,B,,B,,B,,B,, | E,,E,,E,,E,,E,,E,, | [A,,C,]4 [A,,=C,]2 | !fermata![E,,B,,]6 |] %75
V:4
 E,,E,,E,,E,,E,,E,, | E,,E,,E,,E,,E,,E,, | E,,E,,E,,E,,E,,E,, | E,,E,,E,,E,,E,,E,, | %4
 E,,E,,E,,E,, C,,C,, | (F,,,2 B,,,2 D,,2) | E,,E,,E,,E,,E,,E,, | E,,E,,E,,E,,E,,E,, | %8
 E,,E,,E,,E,,E,,E,, | E,,E,,E,,E,,E,,E,, | E,,E,,E,,E,,E,,E,, | B,,,2 =C,,4 | B,,,2 =C,,4 | %13
 B,,,2 =C,,2 B,,,A,,, | G,,,2 =G,,,2 C,,,2 | F,,,2 B,,,4 | E,,E,,E,,E,,E,,E,, | %17
 ^E,,E,,E,,E,,E,,E,, | F,,F,,F,,F,,F,,F,, | F,,F,,B,,,B,,,D,,D,, | x6 | x6 | x6 | x4 B,,,2 | %24
 (E,,2 F,,2 =G,,2) | (F,,2 E,,2 D,,2) | (C,,2 E,,2 =G,,2) | B,,,B,,,B,,,B,,,B,,,B,,, | %28
 B,,,B,,,B,,,B,,,B,,,B,,, | B,,,B,,,B,,,B,,,B,,,B,,, | E,,E,,E,,E,,E,,E,, | E,,E,,E,,E,,E,,E,, | %32
 E,,E,,E,,E,,E,,E,, | E,,E,,E,,E,,E,,E,, | E,,E,,E,,E,,E,,E,, | B,,,2 =C,,4 | B,,,2 C,,4 | %37
 B,,,2 =C,,2 B,,,A,,, | G,,,2 =G,,,2 C,,,2 | F,,,2 B,,,4 | E,,E,,E,,E,,E,,E,, | %41
 =D,,D,,=C,,C,,A,,,A,,, | =F,,,F,,, =F,,F,,F,,F,, | E,,E,,E,,E,,E,,E,, ||[K:A] x6 | x6 | x6 | x6 | %48
 x6 | x6 | x6 | x6 | x6 | x6 | x6 | x6 | x6 | x6 | x6 | A,,,2 A,,4 | A,,2 (C,, D,,2 =F,,) | %61
 A,,,2 B,,,4 | ^F,,,2 B,,,4 ||[K:E] E,,E,,E,,E,,E,,E,, | E,,E,,E,,E,,E,,E,, | E,,E,,E,,E,,E,,E,, | %66
 E,,E,,E,,E,,E,,E,, | B,,,2 =C,,4 | B,,,2 =C,,4 | B,,,2 =C,,2 B,,,A,,, | G,,,2 =G,,,2 C,,,2 | %71
 F,,,2 B,,,4 | E,,,6 | E,,E,,E,,E,,E,,E,, | x6 |] %75
V:5
 x6 |[K:treble] x6 | x6 | x6 | x6 | x2[K:bass] x4 | x6 | x6 | x6 |[K:treble] x6 | x6 | x6 | x6 | %13
 x6 | x6 | x2[K:bass] x4 | x6 | x6 | x2[K:treble] x4 | x6 | x6 | x6 | x6 | x6 | x6 | x6 | x6 | x6 | %28
 x6 | x2[K:bass] x4 | x6 | x6 | x6 |[K:treble] x6 | x6 | x6 | x6 | x6 | x6 | x2[K:bass] x4 | x6 | %41
[K:treble] x6 | (=c/=B/A/B/ c/B/A/B/ c/B/c/A/) | x6 ||[K:A] x6 | x6 | x6 | x6 | x6 | x6 | x6 | x6 | %52
 x6 | x6 | x6 | x6 | x6 | x6 | x6 | x6 | x4[K:bass] x2 | x6 | x6 ||[K:E] x6 | x6 |[K:treble] x6 | %66
 x6 | x6 | x6 | x6 | ([Ec]/B/E/B/ c/B/E/=G/ A/G/C/E/) | x2[K:bass] x4 | x6 | x2[K:treble] x4 | %74
 x6 |] %75

